packages/amis-ui/src/icons/view.svg

<?xml version="1.0" encoding="UTF-8"?>
<svg viewBox="0 0 16 16" version="1.1" xmlns="http://www.w3.org/2000/svg" xmlns:xlink="http://www.w3.org/1999/xlink">
     
    <g  stroke="none" stroke-width="1" fill="currentColor" fill-rule="evenodd">
        <g >
            <rect  opacity="0" x="0.5" y="0.5" width="15" height="15"></rect>
            <path d="M7.9999,3.0001 C11.9889,3.0001 14.9999,6.8731 14.9999,8.0001 C14.9999,8.8831 11.9889,13.0001 7.9999,13.0001 C3.9609,13.0001 0.9999,8.8831 0.9999,8.0001 C0.9999,6.8731 3.9609,3.0001 7.9999,3.0001 Z M7.9999,4.0001 C4.7329,4.0001 2.2179,7.0861 2.0089,7.9731 C2.2749,8.7711 4.7189,12.0001 7.9999,12.0001 C11.2099,12.0001 13.7339,8.7311 13.9929,7.9631 C13.8069,7.1261 11.2709,4.0001 7.9999,4.0001 Z M7.975,5.879 C9.08,5.879 9.975,6.775 9.975,7.879 C9.975,8.983 9.08,9.879 7.975,9.879 C6.871,9.879 5.975,8.983 5.975,7.879 C5.975,6.775 6.871,5.879 7.975,5.879 Z M7.975,6.879 C7.424,6.879 6.975,7.327 6.975,7.879 C6.975,8.43 7.424,8.879 7.975,8.879 C8.527,8.879 8.975,8.43 8.975,7.879 C8.975,7.327 8.527,6.879 7.975,6.879 Z" ></path>
        </g>
    </g>
</svg>

<svg viewBox="0 0 16 16" xmlns="http://www.w3.org/2000/svg"><path d="M8 3c3.989 0 7 3.873 7 5 0 .883-3.011 5-7 5-4.04 0-7-4.117-7-5 0-1.127 2.96-5 7-5Zm0 1C4.733 4 2.218 7.086 2.009 7.973 2.275 8.771 4.719 12 7.999 12c3.21 0 5.735-3.269 5.994-4.037C13.807 7.126 11.27 4 8 4Zm-.025 1.88a2 2 0 1 1 0 4 2 2 0 0 1 0-4Zm0 1a1.001 1.001 0 0 0 0 2 1.001 1.001 0 0 0 0-2Z" fill="currentColor" fill-rule="evenodd"/></svg>
